X:1
T:Come let us rejoice unto our Lord
T:William Byrd (c.1540-1623)
T:Come let us rejoice unto our Lord
T:© Choral Public Domain Library 2010
T:© Choral Public Domain Library 2010
T:© Choral Public Domain Library 2010
T:© Choral Public Domain Library 2010
C:William Byrd (c.1540-1623)
Z:© Choral Public Domain Library 2010
%%score [ 1 2 3 4 ]
L:1/8
M:4/2
K:C
V:1 treble nm="Soprano" snm="S."
V:2 treble nm="Soprano" snm="S."
V:3 treble nm="Alto" snm="A."
V:4 treble-8 transpose=-12 nm="Tenor" snm="T."
V:1
 [Dg]2 | z16 | c6 G2 c4 d4 | e4 c2 g4 ^fe f4 | g8 d4 d4- | d4 e4 c4 d2 f2 | e8"^w > w ." z8 | %7
w: ||Come let us re-|joice un- to our _ _|Lord, re- joice|_ un- to our _|Lord,|
[M:3/2] z12 | G4 A4 B4 | c12 | z12 | z12 | d4 e4 f4 | g8 f4 | e8 d4 | c8 B4 | A12 | B4 c4 d4 | %18
w: |let us make|joy,|||let us make|joy to|God our|Sa- vi-|our,|let us make|
 e6 E2 F4 | G8 G4 | E6 D2 D4 | D4 A8 | c4 A8 | G4 A6"^w .  > w" G2 |[M:4/2] ^F8 z4 A4 | %25
w: joy to _|God our|Sa- vi- our,|to God,|to God,|our Sa- vi-|our. Let|
 B2 c2 d4 c2 d2 e4- | e4 d4 z8 | z8 z4 G4 | d2 e2 f4 z4 e2 f2 | g8 e8 | f4 d2 c4 A2 c2 G2 | %31
w: us ap- proach to his pre-|* sence,|let|us ap- proach to his|pre- sence|in con- fes- si- on, let|
 A3 B c4 c3 d e4 | d8 z4 f4 | e2 d4 cB A8 | d4 A4 c6 B2 | A8 z2 d4 e2 | d8 z2 B4 d2 | c4 A3 B c8 | %38
w: us ap- proach to his pre-|sence in|con- fes- si- * on,|in con- fes- si-|on, and in|Psalms, and in|Psalms, and in Psalms|
 z2 G2 c2 d2 efgf e2 d2 | c2 G2 c2 d2 efgf e3 d | c4 z2 c4 e2 d4 | z2 c2 c2 de f3 e d2 ef | %42
w: let us make joy _ _ _ _ to|him, let us make joy _ _ _ _ to|him, and in Psalms|let us make _ joy _ _ to _|
 g4 z4 z2 d4 e2 | d2 A2 B2 c2 defe d2 c2 | B4 z4 z2 G2 c2 d2 | efgf e2 d2 c2 c4 B2 | %46
w: him, and in|Psalms let us make joy _ _ _ _ to|him, let us make|joy _ _ _ _ to him, and in|
 c8 z2 E2 G2 A2 | Bcdc B2 A2 G8 | z4 G4 B2 c2 d2 ef | g6 f2 | !fermata!e16 |] %51
w: Psalms let us make|joy _ _ _ _ to him,|let us make joy _ _|_ to|him.|
V:2
 [Dg]2 | c6 G2 c4 d4 | e4 c2 g4 ^fe f4 | g2 G3 A B2 A6 d2 | B4 c4 B4 A4 | G4 z2 G2 A4 F4 | G8 z8 | %7
w: |Come let us re-|joice un- to our _ _|Lord, let us re- joice, re-|joice un- to our|Lord, un- to our|Lord,|
[M:3/2] B4 c4 d4 | e12 | z12 | A4 B4 c4 | d8 c4 | B8 z4 | G4 A4 B4 | c8 B4 | A8 G4 | ^F12 | %17
w: let us make|joy,||let us make|joy to|God,|let us make|joy to|God, to|God,|
 d4 e4 f4 | g8 f4 | e8 d4 | c8 B4 | A8 f4 | e8 d4 | d8 ^c4 |[M:4/2] d16- | d8 z8 | z4 B4 c2 d2 e4 | %27
w: let us make|joy to|God our|Sa- vi-|our, to|God our|Sa- vi-|our.|_|Let us ap- proach|
 d2 e2 f8 e4 | z2 A4 _B2 A2 G2 A4 | B4 d2 e4 dc B2 c2 | d2 cB A4 z4 G4 | d2 e2 f4 e2 f2 g4- | %32
w: to his pre- sence|in con- fes- si- on,|in con- fes- si- * * *|* * * on, let|us ap- proach to his pre-|
 g4 d4 c4 A4 | B3 B A2 d4 cB A2 G2 | ^F4 f4 e4 d4- | d2 cB A2 c2 B8 | z2 G4 ^F2 G8 | z8 z2 e4 f2 | %38
w: * sence in con-|fes- si- on, in con- * fes- si-|on, in con- fes-|* si- * * * on,|and in Psalms,|and in|
 e8 z2 G2 c2 d2 | efgf e2 d2 c4 z2 G2- | G2 A2 G4 z2 c4 B2 | c8 z2 A2 B2 c2 | defe d2 c2 B4 G4 | %43
w: Psalms let us make|joy _ _ _ _ to him, and|_ in Psalms, and in|Psalms let us make|joy _ _ _ _ to him, and|
 ^F4 G2 =FE D4 z4 | z2 G2 c2 d2 efgf e2 d2 | c2 c4 B2 c2 G2 c2 d2 | efgf e2 d2 c2 B2 c2 d2 | %47
w: in Psalms _ _ _|let us make joy _ _ _ _ to|him, to _ him, let us make|joy _ _ _ _ to him, to _ _|
 d8 z2 G2 B2 c2 | defe d2 c2 d2 G4 c2- | c2 BA B4 | !fermata!c16 |] %51
w: him, let us make|joy _ _ _ _ to him, make joy|_ _ _ to|him.|
V:3
 [G,d]2 | z16 | z16 | z16 | G6 C2 G4 A4 | B4 G2 c4 BA B4 | c8 z8 |[M:3/2] z12 | E4 F4 G4 | A8 G4 | %10
w: ||||Come let us re-|joice un- to our _ _|Lord,||let us make|joy, to|
 ^F8 z4 | D4 E4 F4 | G8 F4 | E8 D4 | C8 D4 | F8 G4 | D12 | z12 | G4 A4 B4 | c8 B4 | A8 G4 | %21
w: God,|let us make|joy to|God, to|God our|Sa- vi-|our,||let us make|joy to|God our|
 ^F6 G2 A4 | C8 F4 | D4 E6 E2 |[M:4/2] D8 z4 ^F4 | G2 A2 B4 A2 B2 c4- | c4 G4 z8 | z4 F4 A2 B2 c4 | %28
w: Sa- vi- our,|to God|our Sa- vi-|our. Let|us ap- proach to his pre-|* sence,|let us ap- proach|
 B2 c2 d8 c4 | d4 B2 c4 A2 G4 | z8 C8 | F2 G2 A4 G4 C2 c2- | c2 BA B4 A2 A4 D2 | G3 G ^F4 z4 c4 | %34
w: to his pre- sence|in con- fes- si- on,|let|us ap- proach to his pre-|* * * * sence in con-|fes- si- on, in|
 B2 A4 G^F G2 E2 G4- | G4 ^F4 G8 | z2 B,4 C2 D8 | z2 E4 F2 G4 A3 B | c4 z2 A2 c2 B2 c2 BA | %39
w: con- fes- * * * * *|* si- on,|and in Psalms,|and in Psalms, and in|Psalms let us make joy to _|
 G4 z2 G4 A2 G2 E2- | E2 F2 E2 C2 F2 G2 A2 GF | E2 A4 _B2 A4 z2 A,2 | B,2 C2 DEFE G2 G,2 B,2 C2 | %43
w: him, and in Psalms, and|_ in Psalms let us make joy to _|him, and in Psalms let|us make joy _ _ to him, let us make|
 DEFE D2 C2 G,4 D2 EF | G2 G,3 A, B,2 C4 z4 | z2 G,2 C2 D2 EFGF E2 D2 | C2 E4 F2 G6 FE | %47
w: joy _ _ _ _ to him, make _ _|joy to _ _ him,|let us make joy _ _ _ _ to|him, and in Psalms _ _|
 D2 D4 D2 E4 z2 G,2 | B,2 C2 DEFE D3 C B,2 C2 | D4 D4 | !fermata!C16 |] %51
w: _ and in Psalms let|us make joy _ _ _ _ to him, make|joy to|him.|
V:4
 [B,g]2 | z16 | z16 | c6 G2 c4 d4 | e4 c2 g4 ^fe f4 | g4 e4 f4 d4 | c8 z8 |[M:3/2] G4 A4 B4 | c12 | %9
w: |||Come let us re-|joice un- to our _ _|Lord, un- to our|Lord,|let us make|joy,|
 A4 B4 c4 | d8 c4 | B8 A4 | G12 | z12 | z12 | z12 | D4 E4 ^F4 | G8 F4 | E8 D4 | C8 G4 | A6 ^F2 G4 | %21
w: let us make|joy to|God, to|God,||||let us make|joy to|God, to|God our|Sa- vi- *|
 D8 D4 | A8 _B4- | B4 A6 A2 |[M:4/2] D16 | z16 | z4 G4 A2 B2 c4 | B2 c2 d8 c4 | z4 d6 B2 c2 A2 | %29
w: our, to|God our|_ Sa- vi-|our.||Let us ap- proach|to his pre- sence|in con- fes- si-|
 G4 z2 C2 c2 d2 e4 | d2 e2 f8 e4 | d4 A4 c6 c2 | G8 z8 | G4 D4 F6 E2 | D8 c4 G4 | d6 d2 G8 | %36
w: on, let us ap- proach|to his pre- sence|in con- fes- si-|on,|in con- fes- si-|on, in con-|fes- si- on,|
 z2 G4 A2 G8 | z2 c4 d2 c8- | c8 z2 G2 A2 B2 | cded c2 B2 c8- | c8 z2 C2 F2 G2 | %41
w: and in Psalms,|and in Psalms|_ let us make|joy _ _ _ _ to him,|_ let us make|
 A_BcB A2 G2 F4 z4 | G6 A2 G8 | z2 D2 G2 A2 Bcdc B2 A2 | G3 F E2 D2 C2 C4 B,2 | C4 z2 G2 c4 z4 | %46
w: joy _ _ _ _ to him,|and in Psalms|let us make joy _ _ _ _ to|him, to _ _ him, and in|Psalms let us,|
 z4 C4 E6 F2 | GA_BA G2 F2 E6 C2 | G3 A B2 c2 G8- | G4 G4 | !fermata!C16 |] %51
w: let us make|joy _ _ _ _ to him, make|joy _ _ to him,|_ to|him.|

